X:1
T:Mallorca, 11.10.11.10 D
T:Mallorca, 11.10.11.10 D
T:Chester G. Allen, 1869 
T:Public Domain Courtesy of the Cyber Hymnal™
C:Chester G. Allen, 1869
Z:Public Domain
Z:Courtesy of the Cyber Hymnal™
%%score ( 1 2 ) ( 3 4 )
L:1/8
Q:1/4=97
M:4/4
K:Ab
V:1 treble 
V:2 treble 
V:3 bass 
V:4 bass 
V:1
 [Ac]2 [Ad][Ac] [GB]2 [Ac][EA] | (GA)[GB][Ac] [ce]2 [Bd]2 | [Ac]2 [GB]A F2 [FB][EA] | %3
 (GA)[GB][Ac] [GB]4 | [Ac]2 [Ad][Ac] [GB]2 [Ac][EA] | (GA)[GB][Ac] [ce]2 [Bd]2 | %6
 [Ac]2 [Fd][Ec] [DF]2 [FB][Fd] | ([Ec][FB])[EA][EG] [EA]4 | [EB]2 [EA][EG] [EA]2 [CE][EA] | %9
 (GA)[GB][Ac] [Bd]2 [Ac]2 | [Ae]2 [Gd][Ac] [GB]2 [Ac][EA] | ([EG][GB])[FA][=DF] E4 | %12
 [Ec]2 [Fd][Ec] [GB]2 [Ac][EA] | (GA)[EB][EA] [EA]2 [EG]2 | (EA)[Ec][Ee] [DF]2 [FB][Fd] | %15
 ([Ec][FB])[EA][EG] [EA]4 |] %16
V:2
 x8 | E2 x6 | x3 A F2 x2 | E2 x6 | x8 | E2 x6 | x8 | x8 | x8 | E2 x6 | x8 | x4 E4 | x8 | E2 x6 | %14
 E2 x6 | x8 |] %16
V:3
 [A,E]2 [A,F][A,E] [E,D]2 [E,E][E,C] | (B,C)[E,E][E,E] [E,E]2 [G,E]2 | %2
 [A,E]2 [E,D][F,C] [D,D]2 [D,D][E,C] | (B,C)[E,E][E,E] [E,E]4 | %4
 [A,E]2 [A,F][A,E] [E,D]2 [E,E][E,C] | (B,C)[E,E][E,E] [E,E]2 [G,E]2 | %6
 [A,E]2 A,A, [D,A,]2 [D,A,][B,,B,] | ([C,A,][D,D])[E,C][E,B,] [A,,C]4 | %8
 [E,D]2 [E,C][E,B,] [A,,C]2 [A,,A,][C,A,] | (B,C)[E,E][E,E] [G,E]2 [A,E]2 | %10
 [CE]2 [B,E][A,E] [E,E]2 [A,E][A,C] | B,2 [B,,B,][B,,B,] [E,G,]4 | A,2 A,A, [E,D]2 [E,E][E,C] | %13
 (B,C)[E,D][E,C] [E,C]2 [E,B,]2 | [A,C]2 A,[A,C] [D,A,]2 [D,A,][B,,B,] | %15
 ([C,A,][D,D])[E,C][E,B,] [A,,C]4 |] %16
V:4
 x8 | E,2 x6 | x8 | E,2 x6 | x8 | E,2 x6 | x2 A,A, x4 | x8 | x8 | E,2 x6 | x8 | B,2 x6 | %12
 A,2 A,A, x4 | E,2 x6 | x2 A, x5 | x8 |] %16

